Newaita/actions/32/kdenlive-align-left.svg

<svg height="32" viewBox="0 0 32 32" width="32" xmlns="http://www.w3.org/2000/svg"><g fill="#424242"><path d="m6.613281 5.542969h1.324219c.367188 0 .664062.296875.664062.660156v19.847656c0 .363281-.296874.660157-.664062.660157h-1.324219c-.363281 0-.660156-.296876-.660156-.660157v-19.847656c0-.363281.296875-.660156.660156-.660156zm0 0"/><path d="m24.476562 17.449219h-11.90625c-.730468 0-1.324218-.59375-1.324218-1.324219s.59375-1.320312 1.324218-1.320312h11.90625c.730469 0 1.324219.589843 1.324219 1.320312s-.59375 1.324219-1.324219 1.324219zm0 0"/><path d="m22.859375 7.707031-9.355469 9.355469c-.515625.515625-1.355468.515625-1.871094 0-.515624-.519531-.515624-1.355469 0-1.871094l9.355469-9.355468c.515625-.519532 1.355469-.519532 1.871094 0 .515625.515624.515625 1.351562 0 1.871093zm0 0"/><path d="m20.988281 26.417969-9.355469-9.355469c-.515624-.515625-.515624-1.355469 0-1.871094.515626-.515625 1.355469-.515625 1.871094 0l9.355469 9.355469c.515625.515625.515625 1.355469 0 1.871094s-1.355469.515625-1.871094 0zm0 0"/></g></svg>

<?xml version="1.0" encoding="UTF-8"?>
<svg xmlns="http://www.w3.org/2000/svg" xmlns:xlink="http://www.w3.org/1999/xlink" width="32px" height="32px" viewBox="0 0 32 32" version="1.1">
<g id="surface1">
<path style=" stroke:none;fill-rule:nonzero;fill:rgb(25.882354%,25.882354%,25.882354%);fill-opacity:1;" d="M 6.613281 5.542969 L 7.9375 5.542969 C 8.304688 5.542969 8.601562 5.839844 8.601562 6.203125 L 8.601562 26.050781 C 8.601562 26.414062 8.304688 26.710938 7.9375 26.710938 L 6.613281 26.710938 C 6.25 26.710938 5.953125 26.414062 5.953125 26.050781 L 5.953125 6.203125 C 5.953125 5.839844 6.25 5.542969 6.613281 5.542969 Z M 6.613281 5.542969 "/>
<path style=" stroke:none;fill-rule:nonzero;fill:rgb(25.882354%,25.882354%,25.882354%);fill-opacity:1;" d="M 24.476562 17.449219 L 12.570312 17.449219 C 11.839844 17.449219 11.246094 16.855469 11.246094 16.125 C 11.246094 15.394531 11.839844 14.804688 12.570312 14.804688 L 24.476562 14.804688 C 25.207031 14.804688 25.800781 15.394531 25.800781 16.125 C 25.800781 16.855469 25.207031 17.449219 24.476562 17.449219 Z M 24.476562 17.449219 "/>
<path style=" stroke:none;fill-rule:nonzero;fill:rgb(25.882354%,25.882354%,25.882354%);fill-opacity:1;" d="M 22.859375 7.707031 L 13.503906 17.0625 C 12.988281 17.578125 12.148438 17.578125 11.632812 17.0625 C 11.117188 16.542969 11.117188 15.707031 11.632812 15.191406 L 20.988281 5.835938 C 21.503906 5.316406 22.34375 5.316406 22.859375 5.835938 C 23.375 6.351562 23.375 7.1875 22.859375 7.707031 Z M 22.859375 7.707031 "/>
<path style=" stroke:none;fill-rule:nonzero;fill:rgb(25.882354%,25.882354%,25.882354%);fill-opacity:1;" d="M 20.988281 26.417969 L 11.632812 17.0625 C 11.117188 16.546875 11.117188 15.707031 11.632812 15.191406 C 12.148438 14.675781 12.988281 14.675781 13.503906 15.191406 L 22.859375 24.546875 C 23.375 25.0625 23.375 25.902344 22.859375 26.417969 C 22.34375 26.933594 21.503906 26.933594 20.988281 26.417969 Z M 20.988281 26.417969 "/>
</g>
</svg>
